!!!OTL: Das deutsche Gloria
!!!ARE: Europa, Mitteleuropa, Deutschland
!!!SCT: A0622
!!!YEM: Copyright 1995, estate of Helmut Schaffrath.
**kern
*ICvox
*Ivox
*M3/1
*k[b-]
*F:
{2f
=1
1a
2b-
1cc
2b-
=2
1a
2g
1a
2a
=3
1a
2g
2b-
2a
2g
=4
2f
2d
2e
1f}
{2f
=5
1a
2b-
1cc
2b-
=6
1a
2g
1a
2a
=7
1a
2g
2b-
2a
2g
=8
2f
2d
2e
1f}
{2f
=9
1f
2g
1b-
2a
=10
1g
2f
1g
2g
=11
1a
2b-
1cc
2b-
=12
1a
2g
1a}
{2f
=13
2g
2g
2b-
1a
2g
=14
1f
2e
1f}
==
!!!AGN: Romanze, Ballade, Lied, religioeses Lied
!! Schumanns Gsgb 1539 fol 87.
!!!ONB: ESAC (Essen Associative Code) Database: ALTDEU
!!!AMT: simple triple
!!!AIN: vox
!!!EED: Helmut Schaffrath
!!!EEV: 1.0
*-
